X:1
T:Morgen!
T:Morgen!
T:(John Henry Mackay)
T:Richard Strauss, Op.27 No.4
C:Richard Strauss, Op.27 No.4
%%score 1 { ( 2 3 ) | 4 }
L:1/8
Q:1/4=52
M:4/4
K:G
V:1 treble nm="ソプラノ"
V:2 treble nm="Piano"
V:3 treble 
V:4 bass 
V:1
 z8[Q:1/4=56] |[Q:1/4=52] z8[Q:1/4=56] |[Q:1/4=52] z8[Q:1/4=56][Q:1/4=52][Q:1/4=56][Q:1/4=50] | %3
w: |||
[Q:1/4=52] z8[Q:1/4=56][Q:1/4=50][Q:1/4=52][Q:1/4=56][Q:1/4=50][Q:1/4=56] | %4
w: |
[Q:1/4=52] z8[Q:1/4=56][Q:1/4=50][Q:1/4=56] |[Q:1/4=52] z8[Q:1/4=56][Q:1/4=54] | %6
w: ||
[Q:1/4=52] z8[Q:1/4=56][Q:1/4=52][Q:1/4=56][Q:1/4=50] |[Q:1/4=52] z8[Q:1/4=56][Q:1/4=54] | %8
w: ||
[Q:1/4=52] z8[Q:1/4=56] |[Q:1/4=52] z8[Q:1/4=56] |[Q:1/4=52] z8[Q:1/4=56] | %11
w: |||
[Q:1/4=52] z8[Q:1/4=56][Q:1/4=54] |[Q:1/4=52] z8[Q:1/4=56][Q:1/4=55] | %13
w: ||
[Q:1/4=54]!pp! z2 z"^sehr ruhig" ^G[Q:1/4=52] G A[Q:1/4=51] B c | %14
w: Und mor- gen wird die|
[Q:1/4=54] d G B4- B[Q:1/4=50] A[Q:1/4=52] | %15
w: Son- ne wie- * der|
[Q:1/4=52] A2 G2[Q:1/4=54] z G[Q:1/4=52] G F[Q:1/4=56] | %16
w: schei- nen und auf dem|
[Q:1/4=52] B3 B[Q:1/4=54] z B2[Q:1/4=50] B[Q:1/4=56] | %17
w: We- ge, den ich|
[Q:1/4=52] B3 e[Q:1/4=52] e2 A[Q:1/4=50] A[Q:1/4=56][Q:1/4=56] | %18
w: ge- hen wer- de, wird|
[Q:1/4=52] d3 d[Q:1/4=52] f3/2 A/[Q:1/4=50] A2[Q:1/4=56][Q:1/4=56] | %19
w: uns, die Glück- li- chen|
[Q:1/4=52] z A c3 d c2-[Q:1/4=56][Q:1/4=50] | %20
w: sie wie- der ei-|
[Q:1/4=52] c2 B B[Q:1/4=54] B B[Q:1/4=52] B B[Q:1/4=56] | %21
w: * nen in- mit- ten die- ser|
[Q:1/4=52] d3 d[Q:1/4=52] c2 c[Q:1/4=50] B[Q:1/4=56][Q:1/4=56] |[Q:1/4=52] B2 A2 z4[Q:1/4=56] | %23
w: son- nen- at- men- den|Er- de....|
[Q:1/4=52] z!p! F G A[Q:1/4=54] d e[Q:1/4=52] e2-[Q:1/4=56] |[Q:1/4=52] e2 d2 g3 B[Q:1/4=56] | %25
w: und zu dem Strand, dem wei-|* ten, wo- gen-|
[Q:1/4=52] A2 G2 G A B2[Q:1/4=56] |[Q:1/4=52] d2 z e[Q:1/4=54] d2[Q:1/4=52] c2[Q:1/4=56] | %27
w: blau- en, wer- den wir|still und lang- sam|
[Q:1/4=52] e2 d2[Q:1/4=55] B2 G2[Q:1/4=56] |[Q:1/4=54] z8[Q:1/4=52] | z8[Q:1/4=50][Q:1/4=48] | %30
w: nie- der- stei- gen,|||
[Q:1/4=56] z4 z2!pp! A2- | A2 A A[Q:1/4=54] A A[Q:1/4=52] A[Q:1/4=50] A | %32
w: stumm|_ wer- den wir uns in die|
[Q:1/4=56] B3 B[Q:1/4=54] B2[Q:1/4=52] B2 | %33
w: Au- gen schau- en,|
[Q:1/4=56] z4 z2"^immer ruhiger"[Q:1/4=52]!pp! B[Q:1/4=50] B |[Q:1/4=56] c4 c2[Q:1/4=54] c2 | %35
w: und auf|uns sinkt des|
 _e3[Q:1/4=50] _A[Q:1/4=54] A2[Q:1/4=52] G2 |[Q:1/4=56]!>(! G8!>)! |!pp! F2 z2 z4 | %38
w: Glück- kes stum- mes|Schwei|gen...|
[Q:1/4=52] z8[Q:1/4=56] | z8 |[Q:1/4=52] z8[Q:1/4=56] | z8[Q:1/4=50] | z8 |] %43
w: |||||
V:2
"^Langsam"!p!"^sehr getragen"!ped! (B4 d4!ped-up!!ped! | e4 g4!ped-up!!ped! | %2
 b4!ped-up!!ped! a3 g!ped-up!!ped! | g4!ped-up!!ped! f2) z2!ped-up!!ped! | (a4 c3 d!ped-up!!ped! | %5
 c4 B2) (B2-!ped-up! | [Bd]4!ped! [Ac]3!ped-up!!ped! [GB]!ped-up! |!ped! A8)!ped-up!!ped! | %8
 (d4 f4!ped-up!!ped! | a4 g4)!ped-up!!ped! | (e4 b4!ped-up! | %11
 [de-bd']4!ped! [ceac']4)!ped-up!!ped!!ped-up!!ped! | ([db]2 [Bg]2 [Gd]2 [DB]2!ped-up! | %13
 f2!ped! e2 d2!ped-up!!ped! c2!ped-up! | B2)!ped! z2!ped-up! F2!ped! z2!ped-up! | %15
!p!!ped! (B4 d4!ped-up!!ped! | e4 g4!ped-up!!ped! | b4!ped-up!!ped! a3 g!ped-up!!ped! | %18
 g4!ped-up!!ped! f2) z2!ped-up!!ped! | (a4 c3 d!ped-up!!ped! | c4 B2) (B2-!ped-up! | %21
 [Bd]4!ped! [Ac]3!ped-up!!ped! [GB]!ped-up! |!ped! A8)!ped-up!!ped! | (d4 f4!ped-up!!ped! | %24
 a4 g4)!ped-up!!ped! | (e4!>(! b4!ped-up!!>)! |!pp! [de-bd']4!ped! [ceac']4)!ped-up!!ped! | %27
!p! ([db]2 [Bg]2 [Gd]2 [DB]2!ped-up! | f2!ped! e2 d2!ped-up!!ped! c2)!ped-up! | %29
 (B4!ped!!>(! A!ped-up!!ped! c2 F)!>)!!ped-up! |!pp! [B,=FA]8-!ped! | [B,FA]8!ped-up! | %32
 [B,^DAB]8-!ped! | [B,DAB]8!ped-up! | [C_EAc]8!ped!!ped-up! | [_E_A_e]8!ped!!ped-up! | %36
 ([D-G=A-d-]8!ped!!ped-up! | [DFAd]6)!ped! z2!ped-up! |!p! B4!ped! d4- | d8!ped-up! | e4!ped! g4- | %41
!>(! g4 [Beb]4!ped-up!!>)! |!pp! !fermata![dgd']8 |] %43
V:3
 x6 x3/2 x/4x/4 | !arpeggio![EB]2 x2 x2 x3/2 x/4x/4 | %2
 !arpeggio![Be]2 x3/2 x/4x/4 !arpeggio![Ae]2 x3/2 (3x/4x/4x/4 | %3
 !arpeggio![Gcd]2 x3/2 x/ !arpeggio!F2 x3/2 x/ | !arpeggio!A2 x2 x2 (3x x3/2 x/ | %5
 !arpeggio!G2 x2 x4 | E4 x4 | F2 x2 x2 x3/2 x/4x/4 | !arpeggio![DA]2 x2 x2 x3/2 x/4x/4 | %9
 !arpeggio![Ad]2 x2 x2 x3/2 x/4x/4 | !arpeggio![EB]2 x2 x4 | x8 | x8 | ^G4 A4 | G2 x2 [CD]2 x2 | %15
 x6 x3/2 x/4x/4 | !arpeggio![EB]2 x2 x2 x3/2 x/4x/4 | %17
 !arpeggio![Be]2 x3/2 x/4x/4 !arpeggio![Ae]2 x3/2 (3x/4x/4x/4 | %18
 !arpeggio![Gcd]2 x3/2 x/ !arpeggio!F2 x3/2 x/ | !arpeggio!A2 x2 x2 (3x x3/2 x/ | %20
 !arpeggio!G2 x2 x4 | E4 x4 | F2 x2 x2 x3/2 x/4x/4 | !arpeggio![DA]2 x2 x2 x3/2 x/4x/4 | %24
 !arpeggio![Ad]2 x2 x2 x3/2 x/4x/4 | !arpeggio![EB]2 x2 x4 | x8 | x8 | ^G4 A4 | G4 [CDF]2 x2 | x8 | %31
 x8 | x8 | x8 | x8 | x8 | x8 | x8 | x8 | x8 | [EB]2 x2 x4 | x8 | x8 |] %43
V:4
!p! (3(G,,D,G, (3B,[I:staff -1]DG)[I:staff +1] z4 | (3(G,,D,G, (3B,[I:staff -1]DG)[I:staff +1] z4 | %2
 (3(C,^G,B, E2) (3(C,A,C E2) | (3(D,A,C D2- (3DCD A2) | (3(^D,A,C (3^DFA) z4 | %5
 (3(E,,B,,E, (3B,EG) z4 | (3(C,,C,^G, B,2) (3(C,,C,A, C2) | (3(D,,A,,D, (3F,A,D) F2 z2 | %8
 (3(C,F,A, (3DFA) z4 | (3(B,,D,B, (3DGB) z4 | (3(E,G,B, (3EGB) z4 | (3(A,,E,B, (3DEB) [CA]2 z2 | %12
 !arpeggio![D,,D,] G,2 B,2 E3 | [B,D]4 [CE]4 | D2 z2 D,2 z2 | %15
!p! (3(G,,D,G, (3B,[I:staff -1]DG)[I:staff +1] z4 | (3(G,,D,G, (3B,[I:staff -1]DG)[I:staff +1] z4 | %17
 (3(C,^G,B, E2) (3(C,A,C E2) | (3(D,A,C D2- (3DCD A2) | (3(^D,A,C (3^DFA) z4 | %20
 (3(E,,B,,E, (3B,EG) z4 | (3(C,,C,^G, B,2) (3(C,,C,A, C2) | (3(D,,A,,D, (3F,A,D) F2 z2 | %23
 (3(C,F,A, (3DFA) z4 | (3(B,,D,B, (3DGB) z4 | (3(E,G,B, (3EGB) z4 | %26
!pp! (3(A,,E,B, (3DEB) [CA]2 z2 |!p! (!arpeggio![D,,D,] G,2 B,2 E3) | ([B,D]4 [CE]4 | D4 D,4) | %30
 [G,,D,G,]8- | [G,,D,G,]8 | [F,,B,,^D,A,]8- | [F,,B,,D,A,]8 | [=F,,C,_E,A,]8 | [C,,_A,,C,]8 | %36
 [D,,=A,,D,]8- | [D,,A,,D,]6 z2 |!p! (3(G,,D,G, (3B,[I:staff -1]DG)[I:staff +1] z4 | z8 | %40
 (3(G,,D,G, (3B,[I:staff -1]DG)[I:staff +1] z4 | z4 [EG]4 | !fermata![DGB]8 |] %43

